packages/foundations/assets/icons/functional/images/environment/cloud_24_filled.svg

<svg width="24" height="24" viewBox="0 0 24 24" fill="none" xmlns="http://www.w3.org/2000/svg">
<g clip-path="url(#clip0_2206_3096)">
<rect width="24" height="24" fill="white"/>
<path fill-rule="evenodd" clip-rule="evenodd" d="M10.5745 6.07579L10.401 6.20259L10.1702 6.14051C9.79034 6.04935 9.39815 6.00259 9 6.00259L8.78311 6.00721C6.26613 6.11464 4.23101 8.08283 4.01835 10.5712L4.006 10.7566L3.85321 10.8626C2.70991 11.6942 2 13.0343 2 14.5026C2 16.8961 3.87335 18.8672 6.25397 18.996L17.2242 18.9974C19.9045 18.866 22 16.6712 22 14.0026L21.9945 13.7666C21.9248 12.2786 21.1996 10.9243 20.0483 10.0394L19.904 9.93359L19.8699 9.75435C19.2929 7.02385 16.8684 5.00259 14 5.00259C12.8591 5.05645 11.4902 5.4378 10.5745 6.07579Z" fill="#282D37"/>
</g>
<defs>
<clipPath id="clip0_2206_3096">
<rect width="24" height="24" fill="white"/>
</clipPath>
</defs>
</svg>

<svg xmlns="http://www.w3.org/2000/svg" width="24" height="24" fill="none"><g clip-path="url(#a)"><path fill="#fff" d="M0 0h24v24H0z"/><path fill="#282D37" fill-rule="evenodd" d="m10.575 6.076-.174.127-.23-.062A5 5 0 0 0 9 6.003l-.217.004a5 5 0 0 0-4.765 4.564l-.012.186-.153.106a4.5 4.5 0 0 0 2.4 8.133l10.971.001A5.005 5.005 0 0 0 22 14.003l-.006-.236a5 5 0 0 0-1.946-3.728l-.144-.105-.034-.18A6 6 0 0 0 14 5.003c-1.14.053-2.51.435-3.425 1.073" clip-rule="evenodd"/></g><defs><clipPath id="a"><path fill="#fff" d="M0 0h24v24H0z"/></clipPath></defs></svg>
